svgs/thin/square-rss.svg

<svg xmlns="http://www.w3.org/2000/svg" viewBox="0 0 448 512"><!--! Font Awesome Pro 6.3.0 by @fontawesome - https://fontawesome.com License - https://fontawesome.com/license (Commercial License) Copyright 2023 Fonticons, Inc. --><path d="M112 320C85.49 320 64 341.5 64 368S85.49 416 112 416S160 394.5 160 368S138.5 320 112 320zM112 400c-17.64 0-32-14.36-32-32s14.36-32 32-32s32 14.36 32 32S129.6 400 112 400zM72.53 192c-4.438-.5313-8.188 3-8.5 7.438c-.3125 4.406 3.031 8.219 7.438 8.5c107 7.312 193.3 93.53 200.6 200.6C272.3 412.8 275.8 416 280 416c.1875 0 .3438 0 .5313-.0313c4.406-.2813 7.75-4.094 7.438-8.5C280.2 292.5 187.5 199.8 72.53 192zM72.38 96C68.22 96.31 64.22 99.22 64 103.6S67.19 111.8 71.63 112C232.8 119.8 360.3 247.2 368 408.4C368.2 412.7 371.8 416 376 416h.375C380.8 415.8 384.2 412 384 407.6C375.8 238.1 241.9 104.2 72.38 96zM384 32H64C28.65 32 0 60.65 0 96v320c0 35.35 28.65 64 64 64h320c35.35 0 64-28.65 64-64V96C448 60.65 419.3 32 384 32zM432 416c0 26.47-21.53 48-48 48H64c-26.47 0-48-21.53-48-48V96c0-26.47 21.53-48 48-48h320c26.47 0 48 21.53 48 48V416z"/></svg>

<svg xmlns="http://www.w3.org/2000/svg" viewBox="0 0 448 512"><!-- Font Awesome Pro 6.0.0-alpha2 by @fontawesome - https://fontawesome.com License - https://fontawesome.com/license (Commercial License) --><path d="M112 320C85.49 320 64 341.49 64 368S85.49 416 112 416S160 394.51 160 368S138.51 320 112 320ZM112 400C94.355 400 80 385.645 80 368S94.355 336 112 336S144 350.355 144 368S129.645 400 112 400ZM72.531 192.031C68.094 191.5 64.344 195.031 64.031 199.469C63.719 203.875 67.063 207.688 71.469 207.969C178.5 215.281 264.719 301.5 272.031 408.531C272.312 412.781 275.812 416 280 416C280.188 416 280.344 416 280.531 415.969C284.938 415.687 288.281 411.875 287.969 407.469C280.156 292.469 187.531 199.844 72.531 192.031ZM72.375 96C68.219 96.312 64.219 99.219 64 103.625S67.188 111.781 71.625 112C232.844 119.75 360.25 247.156 368 408.375C368.219 412.656 371.75 416 376 416H376.375C380.812 415.781 384.219 412.031 384 407.625C375.844 238.125 241.875 104.156 72.375 96ZM384 32H64C28.654 32 0 60.654 0 96V416C0 451.346 28.654 480 64 480H384C419.348 480 448 451.346 448 416V96C448 60.654 419.348 32 384 32ZM432 416C432 442.467 410.467 464 384 464H64C37.533 464 16 442.467 16 416V96C16 69.533 37.533 48 64 48H384C410.467 48 432 69.533 432 96V416Z"/></svg>
